packages/common/src/icons/github.svg

<svg width="1em" height="1em" viewBox="0 0 40 40" xmlns="http://www.w3.org/2000/svg">
<path fill-rule="evenodd" clip-rule="evenodd" d="M19.9992 5C4.99997 5 5.00003 5.00001 5 20.3808C4.99997 34.9718 5 34.9718 15.2585 34.9741C16.0085 35.1149 16.2822 34.6404 16.2822 34.2328C16.2822 33.8676 16.2695 32.9001 16.262 31.6167C12.0898 32.5464 11.2092 29.555 11.2092 29.555C10.5275 27.7786 9.5435 27.3049 9.5435 27.3049C8.1815 26.3506 9.64625 26.3698 9.64625 26.3698C11.1515 26.4782 11.9435 27.9547 11.9435 27.9547C13.2815 30.3048 15.4543 29.6265 16.3092 29.2328C16.4458 28.2392 16.8328 27.561 17.2618 27.1765C13.931 26.7881 10.4292 25.4685 10.4292 19.5749C10.4292 17.8962 11.0135 16.5227 11.9735 15.4477C11.819 15.0585 11.3045 13.4952 12.1205 11.3773C12.1205 11.3773 13.3797 10.9636 16.2455 12.9538C17.4417 12.6123 18.725 12.4424 20.0007 12.4362C21.2742 12.4424 22.5575 12.6131 23.756 12.9538C26.6195 10.9636 27.8765 11.3773 27.8765 11.3773C28.6947 13.4952 28.1802 15.0585 28.0257 15.4477C28.9872 16.5227 29.5677 17.8954 29.5677 19.5749C29.5677 25.4831 26.0607 26.7835 22.7187 27.1642C23.2572 27.6386 23.7372 28.5776 23.7372 30.0125C23.7372 32.0689 23.7185 33.7276 23.7185 34.2321C23.7185 34.6435 23.9885 35.1218 24.7497 34.9718C35 34.9718 35 34.9741 35 20.3808C35 5 35 5 19.9992 5Z" fill="currentColor"/>
</svg>

<svg width="1em" height="1em" viewBox="0 0 40 40" xmlns="http://www.w3.org/2000/svg"><path fill-rule="evenodd" clip-rule="evenodd" d="M20 5C5 5 5 5 5 20.38c0 14.592 0 14.592 10.258 14.594.75.14 1.024-.334 1.024-.741 0-.365-.012-1.333-.02-2.616-4.172.93-5.053-2.062-5.053-2.062-.681-1.776-1.665-2.25-1.665-2.25-1.363-.954.102-.935.102-.935 1.505.108 2.297 1.585 2.297 1.585 1.338 2.35 3.511 1.672 4.366 1.278.137-.994.524-1.672.953-2.056-3.331-.389-6.833-1.709-6.833-7.602 0-1.679.585-3.052 1.544-4.127-.154-.39-.668-1.953.147-4.07 0 0 1.26-.414 4.126 1.576A14.028 14.028 0 0120 12.436c1.273.006 2.556.177 3.755.518 2.863-1.99 4.12-1.577 4.12-1.577.819 2.118.304 3.681.15 4.07.961 1.076 1.542 2.448 1.542 4.128 0 5.908-3.507 7.209-6.85 7.59.54.474 1.02 1.413 1.02 2.848 0 2.056-.02 3.715-.02 4.22 0 .41.27.889 1.032.739C35 34.972 35 34.974 35 20.38 35 5 35 5 20 5z" fill="currentColor"/></svg>
